src/main/resources/static/fa/svgs/solid/bucket.svg

<svg xmlns="http://www.w3.org/2000/svg" viewBox="0 0 448 512"><!--! Font Awesome Free 6.1.1 by @fontawesome - https://fontawesome.com License - https://fontawesome.com/license/free (Icons: CC BY 4.0, Fonts: SIL OFL 1.1, Code: MIT License) Copyright 2022 Fonticons, Inc. --><path d="M96 160H48V152C48 68.05 116.1 0 200 0H248C331.9 0 400 68.05 400 152V160H352V152C352 94.56 305.4 48 248 48H200C142.6 48 96 94.56 96 152V160zM.0003 224C.0003 206.3 14.33 192 32 192H416C433.7 192 448 206.3 448 224C448 241.7 433.7 256 416 256H410.9L388.5 469C385.1 493.5 365.4 512 340.8 512H107.2C82.65 512 62.05 493.5 59.48 469L37.05 256H32C14.33 256 0 241.7 0 224H.0003z"/></svg>

<svg xmlns="http://www.w3.org/2000/svg" viewBox="0 0 448 512"><!--! Font Awesome Free 6.5.2 by @fontawesome - https://fontawesome.com License - https://fontawesome.com/license/free (Icons: CC BY 4.0, Fonts: SIL OFL 1.1, Code: MIT License) Copyright 2024 Fonticons, Inc. --><path d="M96 152v8H48v-8C48 68.1 116.1 0 200 0h48c83.9 0 152 68.1 152 152v8H352v-8c0-57.4-46.6-104-104-104H200C142.6 48 96 94.6 96 152zM0 224c0-17.7 14.3-32 32-32H416c17.7 0 32 14.3 32 32s-14.3 32-32 32h-5.1L388.5 469c-2.6 24.4-23.2 43-47.7 43H107.2c-24.6 0-45.2-18.5-47.7-43L37.1 256H32c-17.7 0-32-14.3-32-32z"/></svg>
